!!!!SEGMENT: pl-kk--kk-i-3--051-001_anonim--quintis-ferija-sanctus.krn
!!!cenid: 15xx:705
!!!COM: Anonim
!!!COM-rismID: pe30004985
!!!CDT:
!!!CNT:
!!!OPR: Quintis ferija
!!!OTL: Sanctus
!!!OMV: 001
!!!PDT:
!!!AGN:
!!!SMS-siglum: PL-Kk
!!!SMS-shelfmark: Kk.I.3
!!!SMS-shelfwork: 051-001 M
!!!SMS-variant:
!!!SMS-altvar:
!!!NIFC-rismSourceID: 1001145548
!!!NIFC-islandoraID: pl-kk:1170
!!!URL-pdf-islandora: https://repozytorium.nifc.pl/islandora/object/pl-kk%3A1170/datastream/PDF/view
!!!URL-scan: https://polish.musicsources.pl/pl/lokalizacje/galeria/rekopisy/5919 @EN{Scan on Polish Music Sources Website} @PL{Skany w portalu Dziedzictwo Muzyki Polskiej w otwartym dostępie}
!!!ONB-nifc: UWAGA: Discantus (s. 138r-139r, skan 0140-0141), Tenor (s. 103v-104r, skan 0276), Bassus (s. 132v-133v, skan 0436-0437). Części: 1. Sanctus, 2. Benedictus, 3. Agnus Dei
!!!AIN: 1 bass 1 soprn 1 tenor
!!!key: d:dor
**kern	**text	**kern	**text	**kern	**text
*part3	*part3	*part2	*part2	*part1	*part1
*staff3	*staff3	*staff2	*staff2	*staff1	*staff1
*I"Basso	*	*I"Tenore	*	*I"Discantus	*
*I'B.	*	*I'T.	*	*I'C.	*
*Ibass	*	*Itenor	*	*Isoprn	*
*ICvox	*	*ICvox	*	*ICvox	*
*clefF4	*	*clefC4	*	*clefC3	*
*k[b-]	*	*k[]	*	*k[b-]	*
*d:dor	*	*d:dor	*	*d:dor	*
*M2/1	*	*M2/1	*	*M2/1	*
*met(C|)	*	*met(C|)	*	*met(C|)	*
*	*	*lig	*	*	*
=1-	=1-	=1-	=1-	=1-	=1-
0D\	San-	1D/	San-	0r	.
.	.	1F/	.	.	.
*	*	*Xlig	*	*	*
=2-	=2-	=2-	=2-	=2-	=2-
*2\right	*	*2\right	*	*2\right	*
*	*	*lig	*	*	*
2AA/	.	1E/	.	0r	.
2C/	.	.	.	.	.
1GG/	.	1D/	.	.	.
*	*	*Xlig	*	*	*
=3-	=3-	=3-	=3-	=3-	=3-
*	*	*lig	*	*lig	*
1.D\	.	1F/	.	1d\	San-
.	.	1D/	.	1f\	.
2F/	.	.	.	.	.
*	*	*Xlig	*	*Xlig	*
=4-	=4-	=4-	=4-	=4-	=4-
*	*	*lig	*	*	*
2G\	.	1C/	.	1e\	.
2A\	.	.	.	.	.
*	*	*	*	*2\right	*
1D/	.	1F/	.	2d/	.
.	.	.	.	2f\	.
*	*	*Xlig	*	*	*
=5-	=5-	=5-	=5-	=5-	=5-
*custos:C	*	*	*	*	*
*	*	*lig	*	*	*
2E/	.	1G/	.	1e\	.
!LO:LB:g=original	!	!	!	!	!
2C/	.	.	.	.	.
2F/	.	1A\	.	2f\	.
2A\	.	.	.	2e\	.
*	*	*Xlig	*	*	*
=6-	=6-	=6-	=6-	=6-	=6-
*	*	*lig	*	*	*
1G\	.	1B\	.	1g\	.
2C/	.	1c\	.	2e\	.
*	*	*	*	*custos:f	*
1F\	.	.	.	1a\	.
*	*	*Xlig	*	*	*
!	!	!	!	!LO:LB:g=original	!
=7-	=7-	=7-	=7-	=7-	=7-
*	*	*lig	*	*	*
.	.	1A\	.	.	.
1D\	.	.	.	1f\	.
.	.	1F/	.	.	.
1A\	.	.	.	1d\	.
*	*	*Xlig	*	*	*
=8-	=8-	=8-	=8-	=8-	=8-
*	*	*lig	*	*	*
.	.	1D/	.	.	.
2A\	.	.	.	4c/	.
.	.	.	.	4B-/	.
*	*	*custos:D	*	*	*
1AA/	.	1E/	.	1c\	.
*	*	*Xlig	*	*	*
!	!	!LO:LB:g=original	!	!	!
=9-	=9-	=9-	=9-	=9-	=9-
2BB-/	.	00.D/;	-ctus	00.d\;	-ctus
1GG/	.	.	.	.	.
2FF/	.	.	.	.	.
=10-	=10-	=10-	=10-	=10-	=10-
1GG/	.	.	.	.	.
*custos:D	*	*	*	*	*
0.D\	-ctus	.	.	.	.
=11-	=11-	=11-	=11-	=11-	=11-
.	.	.	.	.	.
!LO:LB:g=original	!	!	!	!	!
=12-	=12-	=12-	=12-	=12-	=12-
1.D\	San-	0d\	San-	1.A/	San-
.	.	.	.	.	.
2E/	.	.	.	2G/	.
=13-	=13-	=13-	=13-	=13-	=13-
2F\	.	0c\	.	2A/	.
2G\	.	.	.	2B-/	.
1A\	.	.	.	1c\	.
!	!	!	!	!LO:LB:g=original	!
=14-	=14-	=14-	=14-	=14-	=14-
*	*	*lig	*	*	*
1D\	.	1A\	.	2d/	.
*	*	*	*	*custos:c	*
.	.	.	.	1d	.
1E\	.	1G/	.	.	.
!	!	!	!	!LO:LB:g=original	!
.	.	.	.	2c/	.
*	*	*Xlig	*	*	*
=15-	=15-	=15-	=15-	=15-	=15-
*	*	*lig	*	*lig	*
0D\	.	1A\	.	1d\	.
.	.	1F/	.	1f\	.
*	*	*Xlig	*	*Xlig	*
=16-	=16-	=16-	=16-	=16-	=16-
2C/	.	1G/	.	2e\	.
2BB-/	.	.	.	2d/	.
2AA/	.	[1A;\l	-ctus	2c/	.
1D\	.	.	.	2d/	.
=17-	=17-	=17-	=17-	=17-	=17-
.	.	0A_	.	1e\	.
2C/	.	.	.	.	.
1D\	.	.	.	1d\	.
=18-	=18-	=18-	=18-	=18-	=18-
*custos:D	*	*	*	*	*
0AA/;<	-ctus	0A]	.	0c\;	-ctus
!LO:LB:g=original	!	!	!	!	!
=19-	=19-	=19-	=19-	=19-	=19-
*	*	*lig	*	*	*
1D\	San-	1D/	San-	0r	.
2A\	.	1F/	.	.	.
1A\	.	.	.	.	.
*	*	*Xlig	*	*	*
=20-	=20-	=20-	=20-	=20-	=20-
*	*	*custos:D	*	*	*
.	.	1E/	.	0r	.
2G\	-ctus	.	.	.	.
!	!	!LO:LB:g=original	!	!	!
*	*	*lig	*	*	*
1A\	.	1D/	.	.	.
=21-	=21-	=21-	=21-	=21-	=21-
*	*	*	*	*lig	*
1D\	.	1F/	.	1d\	San-
*	*	*Xlig	*	*	*
*	*	*lig	*	*	*
2A\	.	1D/	.	1f\	.
2B-\	.	.	.	.	.
*	*	*	*	*Xlig	*
=22-	=22-	=22-	=22-	=22-	=22-
*	*	*	*	*custos:d	*
2c\	.	1C/	.	1e/	.
2C/	.	.	.	.	.
*	*	*Xlig	*	*	*
!	!	!	!	!LO:LB:g=original	!
2D/	.	1F/	.	2d/	.
2A\	.	.	.	2f\	.
=23-	=23-	=23-	=23-	=23-	=23-
1G\	.	1G/	.	1d\	-ctus
2r	.	1A\	.	2c/	.
1D\	.	.	.	1f\	.
=24-	=24-	=24-	=24-	=24-	=24-
.	.	1B\	.	.	.
*custos:C	*	*	*	*	*
2G\	.	.	.	2g\	.
!LO:LB:g=original	!	!	!	!	!
1C/	.	1c\	.	1e\	.
=25-	=25-	=25-	=25-	=25-	=25-
*	*	*lig	*	*	*
2D/	.	1A\	.	2f\	.
2C/	.	.	.	2e\	.
0D\	.	1F/	.	2d/	.
.	.	.	.	2.f\	.
*	*	*Xlig	*	*	*
=26-	=26-	=26-	=26-	=26-	=26-
*	*	*lig	*	*	*
.	.	1D/	.	.	.
.	.	.	.	4e\	.
.	.	.	.	1d\	.
1AA/	.	1E/	.	.	.
*	*	*	*	*custos:d	*
.	.	.	.	2c/	.
*	*	*Xlig	*	*	*
!	!	!	!	!LO:LB:g=original	!
=27-	=27-	=27-	=27-	=27-	=27-
2A\	.	0D/	-ctus	1.d\	.
2B-\	.	.	.	.	.
1A\	.	.	.	.	.
.	.	.	.	2e\	.
=28-	=28-	=28-	=28-	=28-	=28-
1.D\	do-	0d\	do-	1.f\	do-
2E/	-mi-	.	.	2g\	-mi-
=29-	=29-	=29-	=29-	=29-	=29-
*	*	*custos:A	*	*	*
1F\	-nus	0c\	-mi-	1a\	-n(u)s
1C/	.	.	.	2g\	.
.	.	.	.	1g\	.
!	!	!LO:LB:g=original	!	!	!
=30-	=30-	=30-	=30-	=30-	=30-
*	*	*lig	*	*	*
1D\	.	1A\	-nus	.	.
.	.	.	.	2f\	.
2r	.	1G/	.	1g\	.
2E/	.	.	.	.	.
*	*	*Xlig	*	*	*
=31-	=31-	=31-	=31-	=31-	=31-
*custos:C	*	*	*	*	*
*	*	*lig	*	*	*
2D/	.	1A\	.	2f\	de-
2C/	.	.	.	2e\	-us
!LO:LB:g=original	!	!	!	!	!
1D\	.	1F/	.	0d\	.
*	*	*Xlig	*	*	*
=32-	=32-	=32-	=32-	=32-	=32-
2G\	.	1G/	de-	.	.
2G\	de-	.	.	.	.
2D/	-us	0A\	-us	2f\	.
*	*	*	*	*custos:f	*
2C/	.	.	.	2e\	.
!	!	!	!	!LO:PB:g=original	!
=33-	=33-	=33-	=33-	=33-	=33-
2.D/	.	.	.	0f/	.
4E/	.	.	.	.	.
*	*	*lig	*	*	*
2F\	.	1D/	sab-	.	.
2.D/	.	.	.	.	.
=34-	=34-	=34-	=34-	=34-	=34-
.	.	1F/	.	2d/	.
4C/	.	.	.	.	.
2D/	.	.	.	1d\	.
*	*	*Xlig	*	*	*
1AA/	ſab-	1E/	.	.	.
.	.	.	.	2c/	sab-
=35-	=35-	=35-	=35-	=35-	=35-
1.BB-X/	-ba-	1D/	.	1d\	.
*	*	*lig	*	*	*
.	.	1F/	.	2d/	.
*custos:GG	*	*	*	*	*
2FF/	.	.	.	1c\	.
!LO:LB:g=original	!	!	!	!	!
=36-	=36-	=36-	=36-	=36-	=36-
1GG/	.	1D/	.	.	.
.	.	.	.	2B-/	.
*	*	*Xlig	*	*	*
2G\	-oth	1C/	.	1.c\	.
1A\	.	.	.	.	.
=37-	=37-	=37-	=37-	=37-	=37-
.	.	1F/	.	.	.
2D/	.	.	.	2f\	.
2E/	.	1G/	.	2e\	.
2C/	.	.	.	2g\	.
=38-	=38-	=38-	=38-	=38-	=38-
*	*	*custos:B	*	*	*
2F\	.	1A\	.	2.f\	.
2D/	.	.	.	.	.
.	.	.	.	4e\	.
!	!	!LO:LB:g=original	!	!	!
*	*	*lig	*	*	*
*	*	*	*	*custos:c	*
1G\	.	1B\	.	1d\	.
!	!	!	!	!LO:LB:g=original	!
=39-	=39-	=39-	=39-	=39-	=39-
2C/	.	1c\	.	1.c\	.
1F\	.	.	.	.	.
*	*	*Xlig	*	*	*
.	.	1A\	.	.	.
2D/	.	.	.	2d/	.
=40-	=40-	=40-	=40-	=40-	=40-
*	*	*lig	*	*	*
0A\	.	1F/	.	1c\	.
.	.	1D/	.	2f\	.
.	.	.	.	1d\	-ba-
*	*	*Xlig	*	*	*
=41-	=41-	=41-	=41-	=41-	=41-
1AA/	.	1E/	-ba-	.	.
.	.	.	.	2c\	.
!	!	!LO:N:vis=0	!	!LO:N:vis=0	!
2BBny/	.	[1D/;l	-oth	[1d\;l	-oth
1GG/	.	.	.	.	.
=42-	=42-	=42-	=42-	=42-	=42-
.	.	0D_	.	0d_	.
*custos:GG	*	*	*	*	*
2FF/	.	.	.	.	.
!LO:LB:g=original	!	!	!	!	!
1GG/	.	.	.	.	.
=43-	=43-	=43-	=43-	=43-	=43-
0D\;	.	0D]	.	0d]	.
=44||-	=44||-	=44||-	=44||-	=44||-	=44||-
*M3/2	*	*	*	*M3/2	*
*met(3)	*	*	*	*met(3)	*
!	!	!LO:TX:t=P:problem=zbrak miany metrum w źródle	!	!	!
1F\	Ple-	1.F/	Ple-	1f\	Ple-
2D/	.	.	.	2f\	.
=45-	=45-	=45-	=45-	=45-	=45-
!LO:TX:t=P:problem=kawałek tekstu pod naklejoną kartką	!	!	!	!	!
1C/	-ni	1.G/	-ni	1e\	-ni
*	*	*	*	*custos:c	*
2BB/	.	.	.	2d\	.
!	!	!	!	!LO:LB:g=original	!
=46-	=46-	=46-	=46-	=46-	=46-
1AA/	s(u)nt	1.A\	s(u)nt	1c\	s(u)nt
2A\	.	.	.	2c/	ce-
=47-	=47-	=47-	=47-	=47-	=47-
2.G\	ce-	1.B\	ce-	1.d\	.
4F\	.	.	.	.	.
4E/	.	.	.	.	.
4D/	.	.	.	.	.
=48-	=48-	=48-	=48-	=48-	=48-
*M2/1	*	*	*	*M2/1	*
*met(C|)	*	*	*	*met(C|)	*
*custos:D	*	*	*	*	*
1C/	-li	1c\	-li	1e\	-li
*	*	*custos:F	*	*	*
!LO:PB:g=original	!	!	!	!	!
2D/	et	1A\	et	2f\	.
2C/	.	.	.	2e\	et
!	!	!LO:LB:g=original	!	!	!
=49-	=49-	=49-	=49-	=49-	=49-
*	*	*lig	*	*	*
0D\	ter-	1F/	ter-	2.d/	.
.	.	.	.	4e\	.
.	.	1D/	.	2f\	.
.	.	.	.	1d\	.
*	*	*Xlig	*	*	*
=50-	=50-	=50-	=50-	=50-	=50-
1AA/	.	1E/	.	.	.
.	.	.	.	2c/	ter-
0A\	.	0D/	-ra	2.d/	.
.	.	.	.	4e\	.
=51-	=51-	=51-	=51-	=51-	=51-
*	*	*	*	*custos:g	*
.	.	.	.	1f\	-[ra]
2B-\	.	0d\	glo-	2g\	glo-
1A\	.	.	.	1a\	.
=52-	=52-	=52-	=52-	=52-	=52-
.	.	.	.	.	.
2B-\	-ra	.	.	2g\	.
0A\	.	0c\	-ri-	1.a\	-ri-
=53-	=53-	=53-	=53-	=53-	=53-
.	.	.	.	.	.
.	.	.	.	4g\	.
.	.	.	.	4f\	.
*lig	*	*lig	*	*	*
1AA/	glo-	1A\	-a	0e\	-a
=54-	=54-	=54-	=54-	=54-	=54-
1C/	.	1G/	.	.	.
*Xlig	*	*Xlig	*	*	*
*	*	*lig	*	*lig	*
1AA/	-ri-	1A\	.	1e\	.
=55-	=55-	=55-	=55-	=55-	=55-
*lig	*	*	*	*	*
1D\	-a	1F/	.	1f\	.
*	*	*Xlig	*	*Xlig	*
1GG/	.	1G/	-tu-	2.d\	-tu-
.	.	.	.	4e\	.
*Xlig	*	*	*	*	*
=56-	=56-	=56-	=56-	=56-	=56-
*custos:C	*	*	*	*	*
2D/	.	000A\;	-a	2f\	.
!LO:LB:g=original	!	!	!	!	!
2C/	.	.	.	2e\	.
2.D/	.	.	.	1d\	.
4E\	.	.	.	.	.
=57-	=57-	=57-	=57-	=57-	=57-
1.F\	-tu-	.	.	1c\	.
*	*	*	*	*custos:e	*
.	.	.	.	2d/	.
!	!	!	!	!LO:LB:g=original	!
2E/	.	.	.	2e\	.
=58-	=58-	=58-	=58-	=58-	=58-
2D/	.	.	.	2f\	.
2C/	.	.	.	2e\	.
1D\	.	.	.	1d\	.
=59-	=59-	=59-	=59-	=59-	=59-
0AA/;	-a	.	.	0c\;	-a
=60||-	=60||-	=60||-	=60||-	=60||-	=60||-
*	*	*lig	*	*	*
0D\	O-	1D/	O-	2d/	O-
.	.	.	.	2.f\	.
*	*	*custos:E	*	*	*
.	.	1F/	.	.	.
.	.	.	.	4e/	.
.	.	.	.	1d\	.
*	*	*Xlig	*	*	*
!	!	!LO:LB:g=original	!	!	!
=61-	=61-	=61-	=61-	=61-	=61-
*	*	*lig	*	*	*
1AA/	-san-	1E/	.	.	.
.	.	.	.	2c/	.
*custos:AA	*	*	*	*	*
1BB-y/	.	1D/	.	1d\	.
*	*	*Xlig	*	*	*
!LO:LB:g=original	!	!	!	!	!
=62-	=62-	=62-	=62-	=62-	=62-
*	*	*lig	*	*	*
*	*	*	*	*custos:B-	*
2AA/	-na	1F/	.	1c\	.
2FF/	.	.	.	.	.
!	!	!	!	!LO:LB:g=original	!
2BB-/	.	1D/	.	2B-/	.
2AA/	.	.	.	1A/	.
*	*	*Xlig	*	*	*
=63-	=63-	=63-	=63-	=63-	=63-
1GG/	.	1D/	-san-	.	.
.	.	.	.	2G/	-san-
2G\	in	1C/	-na	1A/	-na
2E/	.	.	.	.	.
=64-	=64-	=64-	=64-	=64-	=64-
2D/	.	1F/	in	2B-/	in
2F\	.	.	.	2A/	.
2E/	.	1G/	ex-	2c/	.
2G\	ex-	.	.	2B-/	ex-
=65-	=65-	=65-	=65-	=65-	=65-
2F\	.	1A\	-cel-	2d/	-cel-
2A\	.	.	.	2c/	.
*	*	*lig	*	*	*
2G\	-cel-	1B\	.	2e/	.
2B-\	.	.	.	2d/	.
=66-	=66-	=66-	=66-	=66-	=66-
*custos:D	*	*	*	*	*
1A\	.	1c\	.	2c/	.
.	.	.	.	2d/	.
!LO:LB:g=original	!	!	!	!	!
*	*	*Xlig	*	*	*
*	*	*lig	*	*	*
*	*	*	*	*custos:e	*
2D/	.	1A\	.	2B-/	.
!	!	!	!	!LO:LB:g=original	!
2C/	.	.	.	2e/	.
=67-	=67-	=67-	=67-	=67-	=67-
2F\	.	1F/	.	2c/	.
2.D/	.	.	.	1d/	.
*	*	*Xlig	*	*	*
*	*	*lig	*	*	*
.	.	1D/	.	.	.
4C/	.	.	.	.	.
2D/	.	.	.	4c/	.
.	.	.	.	4B-/	.
=68-	=68-	=68-	=68-	=68-	=68-
1AA/	.	1E/	.	1c\	.
*	*	*Xlig	*	*	*
[1D\;l	-ſis	[1D/;l	-ſis	1d\	.
=69-	=69-	=69-	=69-	=69-	=69-
0D]	.	0D]	.	0d\;	-ſis
=-	=-	=-	=-	=-	=-
*-	*-	*-	*-	*-	*-
!!!RDF**kern: < = below
!!!RDF**kern: l = terminal long
!!!system-decoration: [(s1,s2,s3)]
!!!ENC: Arkadiusz Malec
!!!END: 2022-01-19
!!!ENC: Urszula Świątek
!!!END: 2022-01-29
!!!YEC: Copyright 2022 Narodowy Instytut Fryderyka Chopina (https://polishscores.org)
!!!YEM: Licence CC BY 4.0 (https://creativecommons.org/licenses/by/4.0)
